X: 3591
T: Bill Charlton's Fancy
R: jig
M: 6/8
K: Gmajor
|d3e3f3||gzG fzG|ezG d3|DGB dBG|DGB c3|aAc gzA|fzA e3|d^cd e2=c|Bdg B2d|
gGB fzG|ezG d3|DGB dBG|ecG E3|ecG EGc|gdB DGg|fed ^c=cF|GBd g2d|
gGB fzG|ezG d3|DGB dBG|DGB c3|aAc gzA|fzA e3|d^cd e2=c|Bdg B2d|
gGB fzG|ezG d3|DGB dBG|ecG E3|ecG EGc|gdB DGg|fed ^c=cF|GBd g2d||
|:gGB fGB|eGB dGB|eGB dGB|cAF EFA|aAc gAc|fAc eAc|d^cd e2=c|Bdg B2d|
gGB fGB|eGB dGB|eGB dGB|ecG E3|ecG EGc|gdB DGg|fed ^c=cF|GBd g2d:|
|:bBd aBd|gGB fGB|eGB dGB|cAF EFA|aAc gAc|fAc eAc|d^cd e2=c|Bdg B2d|
bBd aBd|gGB fGB|eGB dGB|ecG E3|ecG EGc|gdB DGg|fed ^c=cF|GBd g2d:|
|:(4gDGB (4fDGB|(4eDGB (4dDGB|(4eDGB (4dDGB|(4cEFA c2e|
(4aFAc (4gFAc|(4fFAc (4eFAc|(4d^cd^d (4ez=d=c|(4Bdgd B2d|
(4gDGB (4fDGB|(4eDGB (4dDGB|(4eDGB (4dDGB|(4ecAF A2c|
(4ecAF (4Aceg|(4dBGD (4GBdg|(4fed^c (4ed=cF|(4GBdg G2d:|
|:(4bGBd (4aGBd|(4gDGB (4fDGB|(4eDGB (4dDGB|(4cEFA c2e|
(4aFAc (4gFAc|(4fFAc (4eFAc|(4d^cd^d (4ee=d=c|(4Bdgd B2d|
(4bGBd (4aGBd|(4gDGB (4fDGB|(4eDGB (4dDGB|(4ecAF A2c|
(4ecAF (4Aceg|(4dBGD (4GBdg|(4fed^c (4ed=cF|(4GBdg G2d:|

